icons-rebrand/svg/alarm-filled.svg

<svg width="32" height="32" viewBox="0 0 32 32" fill="none" xmlns="http://www.w3.org/2000/svg">
<path d="M27.606 11.2061C27.973 10.2361 28.086 9.18909 27.933 8.16409C27.8183 7.38407 27.5508 6.63435 27.1458 5.95791C26.7409 5.28146 26.2064 4.69159 25.573 4.22209C24.942 3.74597 24.2219 3.40119 23.4553 3.20813C22.6888 3.01508 21.8913 2.97766 21.11 3.09809C20.1215 3.25219 19.1873 3.65171 18.393 4.26009C20.359 4.63241 22.2128 5.4527 23.8106 6.6573C25.4083 7.8619 26.7071 9.41842 27.606 11.2061ZM13.607 4.26009C12.7777 3.63135 11.7989 3.22963 10.767 3.09456C9.73508 2.95949 8.68581 3.09573 7.72263 3.48985C6.75945 3.88396 5.91564 4.52234 5.27441 5.34202C4.63319 6.1617 4.2167 7.13436 4.06602 8.16409C3.91358 9.18971 4.02616 10.2373 4.39302 11.2071C5.292 9.41916 6.59086 7.8624 8.18878 6.65763C9.78671 5.45285 11.6407 4.63245 13.607 4.26009Z" fill="#0F0F0F"/>
<path d="M27.706 27.32L24.425 24.054C25.7622 22.4523 26.6151 20.5026 26.8837 18.4334C27.1524 16.3642 26.8256 14.2613 25.9417 12.3712C25.0578 10.4812 23.6534 8.88221 21.8932 7.76182C20.133 6.64143 18.0899 6.04603 16.0033 6.04541C13.9168 6.04479 11.8733 6.63898 10.1124 7.75833C8.35154 8.87768 6.94623 10.4758 6.06122 12.3653C5.17621 14.2549 4.84818 16.3576 5.11558 18.4269C5.38298 20.4963 6.23473 22.4465 7.57099 24.049L4.29399 27.322C4.19625 27.4137 4.11793 27.524 4.06367 27.6465C4.00941 27.7691 3.98033 27.9012 3.97816 28.0352C3.97598 28.1692 4.00076 28.3022 4.05101 28.4265C4.10125 28.5507 4.17596 28.6635 4.27067 28.7583C4.36539 28.8531 4.47818 28.9279 4.60237 28.9782C4.72655 29.0285 4.85958 29.0534 4.99356 29.0513C5.12754 29.0493 5.25973 29.0203 5.38229 28.9661C5.50485 28.9119 5.61527 28.8337 5.70699 28.736L8.98499 25.462C10.9521 27.1045 13.4332 28.0047 15.9959 28.0058C18.5586 28.0069 21.0405 27.1088 23.009 25.468L26.294 28.738C26.482 28.9252 26.7368 29.0301 27.0021 29.0296C27.2675 29.029 27.5218 28.923 27.709 28.735C27.8962 28.547 28.0011 28.2922 28.0006 28.0269C28 27.7615 27.894 27.5072 27.706 27.32ZM18.707 19.736C18.5193 19.9232 18.2651 20.0284 18 20.0284C17.7349 20.0284 17.4806 19.9232 17.293 19.736L15.293 17.736C15.2002 17.6434 15.1265 17.5333 15.0762 17.4122C15.0259 17.291 15 17.1612 15 17.03V12.03C15 11.7648 15.1054 11.5104 15.2929 11.3229C15.4804 11.1354 15.7348 11.03 16 11.03C16.2652 11.03 16.5196 11.1354 16.7071 11.3229C16.8946 11.5104 17 11.7648 17 12.03V16.616L18.707 18.323C18.8945 18.5105 18.9998 18.7648 18.9998 19.03C18.9998 19.2952 18.8945 19.5495 18.707 19.737V19.736Z" fill="#0F0F0F"/>
</svg>

<svg width="32" height="32" viewBox="0 0 32 32" fill="none" xmlns="http://www.w3.org/2000/svg"><path d="M27.606 11.206c.367-.97.48-2.017.327-3.042a5.992 5.992 0 0 0-2.36-3.942 5.914 5.914 0 0 0-4.463-1.124 5.984 5.984 0 0 0-2.717 1.162 13.025 13.025 0 0 1 9.213 6.946zM13.607 4.26a5.987 5.987 0 0 0-9.541 3.904 6.076 6.076 0 0 0 .327 3.043 13.026 13.026 0 0 1 9.214-6.947z" fill="#0F0F0F"/><path d="M27.706 27.32l-3.281-3.266a10.975 10.975 0 1 0-16.854-.005l-3.277 3.273a1 1 0 1 0 1.413 1.414l3.278-3.274a10.946 10.946 0 0 0 14.024.006l3.285 3.27a1 1 0 0 0 1.412-1.418zm-8.999-7.584a1.001 1.001 0 0 1-1.414 0l-2-2A.998.998 0 0 1 15 17.03v-5a1 1 0 1 1 2 0v4.586l1.707 1.707a1 1 0 0 1 0 1.414z" fill="#0F0F0F"/></svg>
